X:1
T:Away in a Manger
T:Text: Anonymous, 1885; vs. 3 John Thomas McFarland (1851-1913) Tune: James R. Murray (1841-1905)
T:11 11 11 11 AWAY IN A MANGER www.hymnary.org/text/away_in_a_manger_no_crib_for_a_bed
T:Away in a Manger
T:This hymn is in the public domain.  You may freely use this score for personal and congregational worship.  If you reproduce the score, please credit Hymnary.org as the source. 
T:This hymn is in the public domain.  You may freely use this score for personal and congregational worship.  If you reproduce the score, please credit Hymnary.org as the source. 
Z:This hymn is in the public domain.  You may freely use this score for personal and congregational worship.  If you reproduce the score, please credit Hymnary.org as the source.
%%score ( 1 2 ) ( 3 4 )
L:1/8
M:3/4
K:F
V:1 treble nm="Piano" snm="Pno."
V:2 treble 
V:3 bass nm="Piano" snm="Pno."
V:4 bass 
V:1
 [Ac]2 | [Ac]3 [GB] [FA]2 | [FA]2 [CG]2 [A,F]2 | [DF]2 [CE]2 [B,D]2 | [A,C]4 C2 | C3 [B,D] C2 | %6
w: 3~Be|near me, Lord|Je- sus; I|ask thee to|stay close|by me for-|
w: 1~A-|way in a|man- ger, no|crib for a|bed, the|lit- tle Lord|
w: 2~The|cat- tle are|lo- wing, the|Ba- by a-|wakes, but|lit- tle Lord|
 C2 [B,G]2 [B,E]2 | [B,D]2 [A,C]2 [A,F]2 | [CA]4 [Ac]2 | [Ac]3 [GB] [FA]2 | %10
w: e- ver, and|love me, I|pray. Bless|all the dear|
w: Je- sus laid|down his sweet|head; the|stars in the|
w: Je- sus, no|cry- ing he|makes. I|love thee, Lord|
 (([FA]2 [CG]2)) [A,F]2 | [DF]2 [CE]2 [B,D]2 | [A,C]4 C2 | [GB]3 [FA] [EG]2 | [FA]2 [CG]2 [A,F]2 | %15
w: chil- dren in|thy ten- der|care, and|fit us for|hea- ven, to|
w: sky _ looked|down where he|lay, the|lit- tle Lord|Je- sus a-|
w: Je- sus, look|down from the|sky and|stay by my|side un- til|
 [DG]2 [B,D]2 [B,E]2 | [A,F]4 |] %17
w: live with thee|there.|
w: sleep on the|hay.|
w: mor- ning is|nigh.|
V:2
 x2 | x6 | x6 | x6 | x4 C2 | B,3 x B,2 | B,2 x2 x2 | x6 | x6 | x6 | x6 | x6 | x4 C2 | x6 | x6 | %15
 x6 | x4 |] %17
V:3
 z2 | z C, F,4 | [F,,F,]6 | z !/-![F,F,]4 F, | z C, F,4 | G,4 F,2 | [C,E,]4 [C,G,]2 | [F,,F,]4 z2 | %8
 z C, F,4 | z C, F,4 | [F,,F,]6 | z !/-![F,F,]4 F, | z C, F,4 | C,2 C,4 | F,6 | B,,4 C,2 | %16
 [F,,F,]4 |] %17
V:4
 x2 | F,,4 C,2 | x6 | B,,6 | F,,6 | C,2 C,4 | x6 | x6 | F,,6 | F,,4 C,2 | x6 | B,,6 | F,,4 x2 | %13
 x6 | x6 | x6 | x4 |] %17

